X: 46
T: No_35_Song_of_the_Kluklukwatk_Dance_(a).krn
N: Derived from No_35_Song_of_the_Kluklukwatk_Dance_(a).krn
%%abc-version 2.0
%%abcx-abcm2ps-target-version 5.9.1 (29 Sep 2008)
%%abc-creator hum2abc beta
%%abcx-conversion-date 2019/03/15 08:36:13
%%humdrum-veritas 3821696949
%%humdrum-veritas-data 4001277871
%%linebreak <none>
%%barnumbers 0
L: 1/8
M: 2/4
%%staves {1 2}
V: 1 clef=bass
V: 2 clef=bass
K: F
[V:1] [K:clef=bass][M:2/4]z2C2 | 
[V:2] [K:clef=bass][M:2/4]z4 | 
[V:1] C2B,A, | 
[V:2] z4 | 
[V:1] A,2B,C | 
[V:2] z4 | 
[V:1] C2A,2 | 
[V:2] z4 | 
[V:1] C2A,G, | 
[V:2] z4 | 
[V:1] A,2A,C | 
[V:2] z4 | 
[V:1] C2A,2 | 
[V:2] z4 | 
[V:1] C2A,G, | 
[V:2] z4 | 
[V:1] A, zA,2 | 
[V:2] z4 | 
[V:1] A,4 | 
[V:2] z4 | 
[V:1] CA, C z | 
[V:2] z4 | 
[V:1] z4 | 
[V:2] E,, z E,,E,, | 
[V:1] z2CC [I:setbarnb 14]| 
[V:2] E,, z E,,E,, | 
[V:1] C2CA, ||  
[V:2] E,, z E,,E,, ||  
[V:1] [M:3/4]C z A,G, G, z ||  
[V:2] [M:3/4]E,, z E,,E,, E,, z ||  
[V:1] [M:2/4]A,C CA, | 
[V:2] [M:2/4]E,,E,, E,, z | 
[V:1] A,2C2 | 
[V:2] E,,E,, E,, z | 
[V:1] A,G, G, z | 
[V:2] E,,E,, E,, z | 
[V:1] A,C CA, | 
[V:2] E,,E,, E,, z | 
[V:1] A,2C2 ||  
[V:2] E,,E,, E,, z ||  
[V:1] [M:3/4]A,G, G, z C3/A,/ ||  
[V:2] [M:3/4]E,,E,, E,, z E,, z ||  
[V:1] [M:2/4]A,4 | 
[V:2] [M:2/4]E,, z E,,E,, | 
[V:1] CA, C z :|]  
[V:2] E,, z E,,E,, :|]  
[V:1] CCC2 | 
[V:2] E,,E,, E,, z | 
[V:1] C zz2 ||  
[V:2] z4 ||  
[V:1] [M:3/4]z4z2 ||  
[V:2] [M:3/4]z2E,,E,,z2 ||  
[V:1] [M:2/4]CCC2 | 
[V:2] [M:2/4]z2E,, z | 
[V:1] C zz2 |]  
[V:2] E,, zz2 |]  



